mimes/16/font-x-generic.svg

<?xml version="1.0" encoding="UTF-8" standalone="no"?>
<!-- Created with Inkscape (http://www.inkscape.org/) -->

<svg
   xmlns:svg="http://www.w3.org/2000/svg"
   xmlns="http://www.w3.org/2000/svg"
   xmlns:xlink="http://www.w3.org/1999/xlink"
   version="1.1"
   width="16"
   height="16"
   id="svg3740">
  <defs
     id="defs3742">
    <linearGradient
       id="linearGradient3932">
      <stop
         id="stop3968"
         style="stop-color:#828282;stop-opacity:1"
         offset="0" />
      <stop
         id="stop3936"
         style="stop-color:#434343;stop-opacity:1"
         offset="1" />
    </linearGradient>
    <linearGradient
       x1="-22.539846"
       y1="11.109024"
       x2="-22.539846"
       y2="46.263954"
       id="linearGradient6349"
       xlink:href="#linearGradient3932"
       gradientUnits="userSpaceOnUse"
       gradientTransform="matrix(0.5061962,0,0,0.590136,12.661431,-11.872189)" />
  </defs>
  <g
     id="layer1">
    <path
       d="M 15.5,15.413245 C 14.725221,15.4551 13.85251,15.139327 13.814408,14.246789 13.33833,11.693928 12.949988,9.1248004 12.510202,6.5652141 12.14612,4.3823285 11.782038,2.1994479 11.417958,0.01656892 11.110487,-0.03972208 10.881334,0.04127982 10.784615,0.35442322 8.247656,4.5759197 5.740095,8.8152304 3.1828377,13.024435 c -0.6223082,0.881954 -1.1834502,2.029113 -2.31949729,2.316436 -0.4222517,-0.145864 -0.4330617,0.558127 -0.2522734,0.647342 1.53727019,0 3.07453329,0 4.61179639,0 0.084661,-0.463176 -0.04225,-0.736424 -0.5854831,-0.627601 -1.0550301,0.166623 -0.9437406,-1.066928 -0.5468905,-1.674448 0.4806603,-0.959013 1.0462478,-1.873619 1.5645832,-2.812926 1.76089,0 3.521768,0 5.282649,0 0.171856,1.155514 0.443309,2.299586 0.528266,3.465209 0.218485,0.952049 -0.853329,1.039892 -1.523625,1.061678 -0.197286,-0.04154 -0.263514,0.70147 0.035578,0.588088 1.840692,0 3.681367,0 5.522059,0 0,-0.191657 0,-0.38331 0,-0.574968 z M 6.159331,9.7238834 c 1.200602,-2.072173 2.401199,-4.1443372 3.601803,-6.216511 0.352176,2.0721738 0.704351,4.144338 1.056531,6.216511 -1.552777,0 -3.105556,0 -4.658334,0 z"
       id="text2044"
       style="font-size:46.60050201px;font-style:italic;font-variant:normal;font-weight:normal;font-stretch:normal;text-align:start;line-height:125%;writing-mode:lr-tb;text-anchor:start;fill:url(#linearGradient6349);fill-opacity:1;stroke:none;display:inline;font-family:Nimbus Roman No9 L" />
  </g>
</svg>

<?xml version="1.0" encoding="UTF-8" standalone="no"?>
<!-- Created with Inkscape (http://www.inkscape.org/) -->
<svg
   xmlns:dc="http://purl.org/dc/elements/1.1/"
   xmlns:cc="http://creativecommons.org/ns#"
   xmlns:rdf="http://www.w3.org/1999/02/22-rdf-syntax-ns#"
   xmlns:svg="http://www.w3.org/2000/svg"
   xmlns="http://www.w3.org/2000/svg"
   xmlns:xlink="http://www.w3.org/1999/xlink"
   xmlns:sodipodi="http://sodipodi.sourceforge.net/DTD/sodipodi-0.dtd"
   xmlns:inkscape="http://www.inkscape.org/namespaces/inkscape"
   width="16px"
   height="16px"
   id="svg3740"
   sodipodi:version="0.32"
   inkscape:version="0.46"
   sodipodi:docname="font-x-generic.svg"
   inkscape:output_extension="org.inkscape.output.svg.inkscape">
  <defs
     id="defs3742">
    <linearGradient
       id="linearGradient3932">
      <stop
         id="stop3968"
         offset="0"
         style="stop-color:#828282;stop-opacity:1;" />
      <stop
         id="stop3936"
         offset="1"
         style="stop-color:#434343;stop-opacity:1;" />
    </linearGradient>
    <linearGradient
       inkscape:collect="always"
       xlink:href="#linearGradient3932"
       id="linearGradient6349"
       gradientUnits="userSpaceOnUse"
       gradientTransform="matrix(0.5061962,0,0,0.590136,12.661431,-11.872189)"
       x1="-22.539846"
       y1="11.109024"
       x2="-22.539846"
       y2="46.263954" />
  </defs>
  <sodipodi:namedview
     id="base"
     pagecolor="#ffffff"
     bordercolor="#666666"
     borderopacity="1.0"
     inkscape:pageopacity="0.0"
     inkscape:pageshadow="2"
     inkscape:zoom="22.197802"
     inkscape:cx="8"
     inkscape:cy="8"
     inkscape:current-layer="layer1"
     showgrid="true"
     inkscape:grid-bbox="true"
     inkscape:document-units="px"
     inkscape:window-width="640"
     inkscape:window-height="679"
     inkscape:window-x="798"
     inkscape:window-y="132" />
  <metadata
     id="metadata3745">
    <rdf:RDF>
      <cc:Work
         rdf:about="">
        <dc:format>image/svg+xml</dc:format>
        <dc:type
           rdf:resource="http://purl.org/dc/dcmitype/StillImage" />
      </cc:Work>
    </rdf:RDF>
  </metadata>
  <g
     id="layer1"
     inkscape:label="Layer 1"
     inkscape:groupmode="layer">
    <path
       id="text2044"
       d="M 15.5,15.413245 C 14.725221,15.4551 13.85251,15.139327 13.814408,14.246789 C 13.33833,11.693928 12.949988,9.1248004 12.510202,6.5652141 C 12.14612,4.3823285 11.782038,2.1994479 11.417958,0.016568921 C 11.110487,-0.039722079 10.881334,0.041279821 10.784615,0.35442322 C 8.247656,4.5759197 5.740095,8.8152304 3.1828377,13.024435 C 2.5605295,13.906389 1.9993875,15.053548 0.86334041,15.340871 C 0.44108871,15.195007 0.43027871,15.898998 0.61106701,15.988213 C 2.1483372,15.988213 3.6856003,15.988213 5.2228634,15.988213 C 5.3075244,15.525037 5.1806132,15.251789 4.6373803,15.360612 C 3.5823502,15.527235 3.6936397,14.293684 4.0904898,13.686164 C 4.5711501,12.727151 5.1367376,11.812545 5.655073,10.873238 C 7.415963,10.873238 9.176841,10.873238 10.937722,10.873238 C 11.109578,12.028752 11.381031,13.172824 11.465988,14.338447 C 11.684473,15.290496 10.612659,15.378339 9.942363,15.400125 C 9.745077,15.358586 9.678849,16.101595 9.977941,15.988213 C 11.818633,15.988213 13.659308,15.988213 15.5,15.988213 C 15.5,15.796556 15.5,15.604903 15.5,15.413245 z M 6.159331,9.7238834 C 7.359933,7.6517104 8.56053,5.5795462 9.761134,3.5073724 C 10.11331,5.5795462 10.465485,7.6517104 10.817665,9.7238834 C 9.264888,9.7238834 7.712109,9.7238834 6.159331,9.7238834 z"
       style="display:inline;font-size:46.60050200999999959px;font-style:italic;font-variant:normal;font-weight:normal;font-stretch:normal;text-align:start;line-height:125%;writing-mode:lr-tb;text-anchor:start;fill:url(#linearGradient6349);fill-opacity:1;stroke:none;stroke-width:1px;stroke-linecap:butt;stroke-linejoin:miter;stroke-opacity:1;font-family:Nimbus Roman No9 L" />
  </g>
</svg>
